X: 25938
T: Maurice Lennon's Tribute To Larry Reynolds
R: reel
M: 4/4
K: Dmajor
|:D3F ADFA|DFAB ~A3 B|ADD/D/D D2 FA|dAde effa|
b ~f3 b2 af|gfed e2 de|f2 ed BddB|1 Adfe dBAF:|2 Adfe d2 fa||
|:b ~f3 b2 af|gfed e2 de|fdad bdad|feed efga|
b2 bf ~a3 f|gfed e2 de|f2 ed B2 dB|1 Adfe d2 fa:|2 Adfe dBAF||

